X: 24535
T: Luggelaw
R: waltz
M: 3/4
K: Dmajor
(c/d/ e).e|(d>e f)(ga).a|(a>ec) (.c.d.g)|(g2 e)(c{e}d>c)|c2 z (c/d/e).e|
(d>e f)(ga).a|(g>e c)(.d.e.g)|(a>ge)(.c {e}d>c)|c2 z .g(g>^g)|
(a2c') z{b}(a>g)|(eg) g2 (ab/c'/)|(e>f/4g/4) (fe){e}(dc)|!fermata!d3 z(efe)|
(d>ef)(g{b}a>g)|(g>e.c) (.d.e.g)|(a>g).e(.c {e}d>)c|!fermata!c3||

